src/wp-content/themes/aquaban/assets/images/marker-2x.svg

<svg width="13" height="17" viewBox="0 0 13 17" fill="none" xmlns="http://www.w3.org/2000/svg">
<path d="M6.3812 0H6.61769C7.7915 0.0222461 8.95802 0.36623 9.95074 0.995098C10.9299 1.61035 11.7408 2.49057 12.2722 3.51854C12.7196 4.37816 12.9687 5.34006 12.9966 6.30859C13.0324 7.39434 12.7883 8.48738 12.2964 9.45559C12.0788 9.8942 11.7962 10.296 11.499 10.6834C9.92719 12.7892 8.35502 14.8946 6.78286 17H6.21934C4.57387 14.8003 2.93206 12.5983 1.28825 10.3972C0.724064 9.64219 0.327706 8.7623 0.13699 7.83893C-0.124374 6.59215 -0.0102758 5.26867 0.46668 4.0873C0.967517 2.83223 1.87334 1.74582 3.01166 1.02033C4.01201 0.376191 5.19312 0.0249023 6.3812 0ZM6.18418 4.37285C5.70789 4.44225 5.25946 4.67965 4.93142 5.0316C4.55663 5.42406 4.3417 5.96395 4.34468 6.50715C4.3417 7.04172 4.54966 7.57396 4.91385 7.9651C5.19478 8.27355 5.56593 8.49734 5.97025 8.59961C6.45052 8.72246 6.97291 8.67266 7.42035 8.4585C7.93047 8.21777 8.3391 7.76887 8.52849 7.23695C8.69765 6.77045 8.69798 6.24518 8.52882 5.77867C8.35303 5.28428 7.98752 4.8616 7.52715 4.61125C7.12151 4.38746 6.6419 4.30512 6.18418 4.37285Z" fill="#00AFEA"/>
</svg>

<svg width="13" height="17" fill="none" xmlns="http://www.w3.org/2000/svg"><path d="M6.381 0h.237A6.49 6.49 0 019.95.995a6.55 6.55 0 012.321 2.524 6.51 6.51 0 01.024 5.937c-.217.438-.5.84-.797 1.227L6.783 17h-.564c-1.645-2.2-3.287-4.402-4.93-6.603a6.517 6.517 0 01-.822-6.31A6.544 6.544 0 013.012 1.02c1-.644 2.181-.995 3.37-1.02zm-.197 4.373c-.476.07-.925.307-1.253.659a2.14 2.14 0 00-.586 1.475 2.145 2.145 0 00.569 1.458c.28.309.652.532 1.056.635a2.153 2.153 0 002.558-1.363 2.159 2.159 0 00-2.344-2.864z" fill="#00AFEA"/></svg>
